packages/core/src/svgs/tokens/mono/KWAI.svg

<svg width="24" height="24" viewBox="0 0 24 24" fill="none" xmlns="http://www.w3.org/2000/svg">
<path fill-rule="evenodd" clip-rule="evenodd" d="M2 8.66663H5.49167L5.84167 9.02496L6.07916 8.66663H10.3125C10.4584 8.81246 10.75 9.10413 10.75 9.11663L10.9167 8.66663H12.7208L13.1625 9.11663L13.3833 8.66663H18.0917L18.575 9.15829L18.775 12.4707L19.4583 8.66663H21.4208L22 9.11663L20.9416 15.3333H16.8417L16.3708 14.8583V14.5H16.0792L15.7583 15.3333H11.4167L10.9584 14.9083V14.1999L10.5541 15.3333H6.34583L5.89166 14.9083L5.24583 13.5333L4.9125 15.3333H2.81667L2.37917 14.9083L3.25 9.68329L2 8.66663ZM6.99999 12.0958L8.04166 10.3041V13.9291L6.99999 12.0958ZM2.51744 8.87502L3.47577 9.57919L2.58411 14.7083H4.33411L4.73827 12.1292L6.00494 14.7083H8.15077L6.41328 11.6875L8.17161 8.87502H6.18827L4.94244 11.1959L5.29661 8.87502H2.51744ZM9.93827 8.87502H8.25078V14.7083H10.0924L11.1674 11.3833V14.7083H13.448L14.7673 12.3458H13.884L14.9174 8.87502H13.405L12.3341 12.325L12.4425 8.87502H10.9008L9.81744 12.325L9.93827 8.87502ZM15.1007 14.7083H13.4718L16.634 11.3333H15.384L16.8757 8.87502H17.8466L18.2008 14.7083H16.4591V13.8667H15.3924L15.1007 14.7083ZM18.5757 14.7083H20.2966L21.3383 8.87502H19.555L18.5757 14.7083Z" fill="white"/>
</svg>

<svg xmlns="http://www.w3.org/2000/svg" width="24" height="24" fill="none" viewBox="0 0 24 24">
    <path fill="#fff" fill-rule="evenodd" d="M2 8.667h3.492l.35.358.237-.358h4.234c.145.145.437.437.437.45l.167-.45h1.804l.441.45.221-.45h4.709l.483.491.2 3.313.683-3.804h1.963l.579.45-1.058 6.216h-4.1l-.471-.475V14.5h-.292l-.32.833h-4.342l-.459-.425V14.2l-.404 1.133H6.346l-.454-.425-.646-1.375-.334 1.8H2.817l-.438-.425.871-5.225zm5 3.429 1.042-1.792v3.625zM2.517 8.875l.959.704-.892 5.13h1.75l.404-2.58 1.267 2.58H8.15l-1.738-3.021 1.759-2.813H6.188l-1.246 2.32.355-2.32zm7.421 0H8.251v5.833h1.841l1.075-3.325v3.325h2.281l1.32-2.362h-.884l1.033-3.471h-1.512l-1.07 3.45.107-3.45h-1.541l-1.084 3.45zm5.163 5.833h-1.63l3.163-3.375h-1.25l1.492-2.458h.97l.355 5.833h-1.742v-.841h-1.067zm3.475 0h1.72l1.042-5.833h-1.783z" clip-rule="evenodd"/>
</svg>
